X:2
T:Bill & Diane's Waltz
L:1/8
Q:1/4=140
M:3/4
K:D
DE |: F2 A2 A3/2B/2 | A2 F2 DE | F2 A2 d2 | f4 fe |
 d3e d3/2B/2 | A2 F2 DE |1 F2 A2 F2 | E4 DE :|2 F2 A2 E3/2F/2 | D4 A2 |
|: B3A B3/2c/2 | d2 c2 B2 | A3B A3/2F/2 | A4 F2 |
|1 G3F GA | B2 G2 E2 | F3E F3/2G/2 | A4 A2 :|2 E3D EF | G2 F2 E2 | D3E F3/2E/2 | D6 |]

